; HEADER_BLOCK_START
; generated by OrcaSlicer 2.2.0 on 2025-03-19 at 10:01:23
; total layer number: 20
; filament_density: 1.24
; filament_diameter: 1.75
; max_z_height: 4.00
; HEADER_BLOCK_END

; THUMBNAIL_BLOCK_START

;
; THUMBNAIL_BLOCK_END

; THUMBNAIL_BLOCK_START

;
; THUMBNAIL_BLOCK_END

; external perimeters extrusion width = 0.40mm
; perimeters extrusion width = 0.45mm
; infill extrusion width = 0.45mm
; solid infill extrusion width = 0.40mm
; top infill extrusion width = 0.40mm
; first layer extrusion width = 0.50mm

; EXECUTABLE_BLOCK_START
M73 P0 R14
M201 X1000 Y1000 Z100 E10000
M203 X500 Y500 Z10 E60
M204 P1000 R1000 T1000
M205 X10.00 Y10.00 Z0.30 E5.00 ; sets the jerk limits, mm/sec
;TYPE:Custom
; BIQU B1 Start G-code
M117 Getting the bed up to temp!
M140 S60; Set Heat Bed temperature
M190 S60; Wait for Heat Bed temperature
M117 Getting the extruder up to temp!
M104 S220; Set Extruder temperature
G92 E0; Reset Extruder
M117 Homing axes
G28; Home all axes
M109 S220; Wait for Extruder temperature
G1 Z2.0 F3000; Move Z Axis up little to prevent scratching of Heat Bed
G1 X4.1 Y20 Z0.3 F5000.0; Move to start position
M117 Purging
G1 X4.1 Y200.0 Z0.3 F1500.0 E15; Draw the first line
G1 X4.4 Y200.0 Z0.3 F5000.0; Move to side a little
G1 X4.4 Y20 Z0.3 F1500.0 E30; Draw the second line
G92 E0; Reset Extruder
M117 Lets make
G1 Z2.0 F3000; Move Z Axis up little to prevent scratching of Heat Bed
M73 P1 R14
M73 P1 R14
G1 X5 Y20 Z0.3 F5000.0; Move over to prevent blob squish
G90
G21
M83 ; use relative distances for extrusion
; filament start gcode
M106 S0
;LAYER_CHANGE
;Z:0.2
;HEIGHT:0.2
;BEFORE_LAYER_CHANGE
;0.2
G92 E0

G1 E-7 F4200
;_SET_FAN_SPEED_CHANGING_LAYER
M204 S1000
G1 X64.817 Y48.822 F18000
G1 Z.6
G1 Z.2
G1 E7 F4200
;TYPE:Skirt
;WIDTH:0.5
G1 F3000
G1 X64.814 Y38.6 E.38074
G1 X65.207 Y37.202 E.05408
G1 X66.27 Y36.212 E.05408
G1 X67.5 Y35.914 E.04715
G1 X167.5 Y35.914 E3.72462
G1 X168.898 Y36.307 E.05408
M73 P2 R14
M73 P2 R14
G1 X169.887 Y37.37 E.05408
G1 X170.186 Y38.6 E.04715
G1 X170.176 Y71.615 E1.22968
G1 X159.326 Y196.633 E4.67395
G1 X158.814 Y197.991 E.05408
G1 X157.669 Y198.885 E.05408
G1 X156.648 Y199.086 E.03875
G1 X78.348 Y199.035 E2.91638
G1 X76.95 Y198.641 E.05408
G1 X75.962 Y197.578 E.05408
G1 X75.674 Y196.581 E.03862
G1 X64.824 Y71.615 E4.67204
G1 X64.818 Y48.862 E.84746
M73 P3 R14
M73 P3 R14
G1 X65.274 Y48.862 F18000
G1 F3000
G1 X65.271 Y38.6 E.38222
G1 X65.662 Y37.339 E.04917
G1 X66.698 Y36.52 E.04917
G1 X67.5 Y36.371 E.03037
G1 X167.5 Y36.371 E3.72462
G1 X168.761 Y36.762 E.04917
G1 X169.579 Y37.798 E.04917
G1 X169.729 Y38.6 E.03037
G1 X169.72 Y71.575 E1.22821
G1 X158.87 Y196.593 E4.67395
G1 X158.372 Y197.815 E.04917
G1 X156.649 Y198.629 E.07097
G1 X78.349 Y198.578 E2.91638
G1 X77.088 Y198.186 E.04917
M73 P3 R13
M73 P3 R13
G1 X76.13 Y196.542 E.07087
G1 X65.28 Y71.575 E4.67204
G1 X65.274 Y48.902 E.8445
M73 P4 R13
; printing object chassisBone_All_v2.STL id:7811887588677804288 copy 0
M73 P4 R13
G1 E-5.6 F4200
;WIPE_START
G1 F3000
G1 X65.274 Y47.902 E-1.4
;WIPE_END
G1 X72.26 Y50.975 Z.6 F18000
G1 X155.459 Y87.57 Z.6
G1 Z.2
G1 E7 F4200
;TYPE:Inner wall
;WIDTH:0.607302
G1 F1800
G1 X165.541 Y71.167 E.88548
;WIDTH:0.635724
G1 X165.686 Y70.87 E.01598
G1 X165.718 Y70.54 E.01598
;WIDTH:0.607301
G1 X165.718 Y41.578 E1.33196
G1 X165.669 Y41.427 E.00732
;WIDTH:0.571534
G1 X165.619 Y41.276 E.00685
;WIDTH:0.535767
G1 X165.57 Y41.124 E.00639
;WIDTH:0.499999
G1 X165.329 Y40.77 E.01595
G1 X164.975 Y40.53 E.01595
;WIDTH:0.53577
G1 X164.824 Y40.48 E.00639
;WIDTH:0.57154
G1 X164.673 Y40.431 E.00685
;WIDTH:0.60731
G1 X164.521 Y40.382 E.00732
G1 X134.718 Y40.382 E1.37069
G1 X134.718 Y39.817 E.02596
G1 X164.521 Y39.817 E1.37069
G1 X164.726 Y39.8 E.00942
;WIDTH:0.57154
G1 X164.93 Y39.782 E.00883
;WIDTH:0.53577
G1 X165.134 Y39.764 E.00823
;WIDTH:0.499999
G1 X166.336 Y39.764 E.04477
G1 X166.336 Y40.966 E.04477
;WIDTH:0.535767
G1 X166.318 Y41.17 E.00823
;WIDTH:0.571534
G1 X166.3 Y41.374 E.00883
;WIDTH:0.607302
G1 X166.282 Y41.578 E.00942
G1 X166.282 Y71.009 E1.35354
G1 X166.022 Y71.462 E.02403
G1 X151.63 Y94.879 E1.26409
G1 X151.302 Y95.155 E.01969
M73 P5 R13
M73 P5 R13
G1 X136.779 Y105.63 E.82353
;WIDTH:0.650232
G1 X136.577 Y105.833 E.01416
;WIDTH:0.693165
G1 X136.375 Y106.036 E.01516
G1 X136.329 Y106.318 E.01516
;WIDTH:0.650233
G1 X136.282 Y106.6 E.01416
;WIDTH:0.607301
G1 X136.282 Y126.017 E.89296
G1 X136.059 Y126.443 E.02211
G1 X131.749 Y134.174 E.40707
G1 X131.682 Y134.604 E.02003
G1 X131.678 Y150.697 E.74013
G1 X131.696 Y150.915 E.01004
;WIDTH:0.571534
G1 X131.714 Y151.132 E.00941
;WIDTH:0.535767
G1 X131.732 Y151.35 E.00877
G1 X131.714 Y151.676 E.01312
;WIDTH:0.571535
G1 X131.696 Y152.002 E.01407
;WIDTH:0.607302
G1 X131.678 Y152.329 E.01502
G1 X131.675 Y164.372 E.55385
;WIDTH:0.640748
G1 X131.658 Y165.115 E.03623
G1 X130.82 Y165.115 E.04086
G1 X131.074 Y164.728 E.02255
G1 X131.111 Y164.371 E.01748
;WIDTH:0.607302
G1 X131.114 Y152.328 E.55385
G1 X131.021 Y152.101 E.01129
;WIDTH:0.571535
G1 X130.928 Y151.874 E.01058
;WIDTH:0.535767
G1 X130.835 Y151.647 E.00986
;WIDTH:0.499999
G1 X130.555 Y151.38 E.01438
G1 X130.469 Y151.35 E.0034
G1 X130.555 Y151.319 E.0034
G1 X130.835 Y151.053 E.01438
;WIDTH:0.539501
G1 X130.924 Y150.895 E.00734
;WIDTH:0.579002
G1 X131.013 Y150.737 E.00792
;WIDTH:0.618503
G1 X131.102 Y150.579 E.0085
G1 X131.114 Y150.371 E.00976
;WIDTH:0.607301
G1 X131.118 Y134.172 E.74499
G1 X131.341 Y133.747 E.0221
G1 X135.651 Y126.016 E.40707
G1 X135.718 Y125.585 E.02004
G1 X135.718 Y106.6 E.87312
;WIDTH:0.650233
G1 X135.739 Y106.161 E.02178
;WIDTH:0.693165
G1 X135.761 Y105.721 E.02331
G1 X136.172 Y105.398 E.02772
;WIDTH:0.650232
G1 X136.449 Y105.172 E.01767
;WIDTH:0.607302
G1 X151.108 Y94.598 E.83126
G1 X151.291 Y94.353 E.01408
G1 X155.438 Y87.604 E.3643
G1 E-4.9 F4200
;WIPE_START
G1 F1800
G1 X155.962 Y86.752 E-2.1
;WIPE_END
G1 X150.097 Y81.868 Z.6 F18000
G1 X100.282 Y40.382 Z.6
G1 Z.2
G1 E7 F4200
;WIDTH:0.60731
G1 F1800
G1 X70.291 Y40.382 E1.37932
G1 X70.084 Y40.511 E.01122
;WIDTH:0.57154
G1 X69.877 Y40.641 E.01051
;WIDTH:0.53577
G1 X69.671 Y40.77 E.0098
;WIDTH:0.499999
G1 X69.43 Y41.124 E.01595
;WIDTH:0.535768
G1 X69.381 Y41.276 E.00639
;WIDTH:0.571536
G1 X69.331 Y41.427 E.00685
;WIDTH:0.607304
G1 X69.282 Y41.578 E.00732
G1 X69.282 Y70.54 E1.33197
;WIDTH:0.635725
G1 X69.314 Y70.87 E.01598
M73 P6 R13
M73 P6 R13
G1 X69.459 Y71.167 E.01598
;WIDTH:0.607303
G1 X83.797 Y94.496 E1.25935
G1 X84.029 Y94.697 E.01408
G1 X98.551 Y105.172 E.82353
;WIDTH:0.650232
G1 X98.895 Y105.447 E.02178
;WIDTH:0.693165
G1 X99.239 Y105.721 E.02331
G1 X99.261 Y106.244 E.02772
;WIDTH:0.650233
G1 X99.282 Y106.6 E.01766
;WIDTH:0.607301
G1 X99.282 Y125.76 E.88114
G1 X99.433 Y126.168 E.02001
G1 X103.869 Y134.134 E.41932
G1 X103.882 Y134.613 E.02208
G1 X103.886 Y150.551 E.73297
G1 X103.979 Y150.717 E.00873
;WIDTH:0.571534
G1 X104.072 Y150.882 E.00817
;WIDTH:0.535767
G1 X104.165 Y151.047 E.00762
;WIDTH:0.499999
G1 X104.444 Y151.314 E.01437
G1 X104.531 Y151.344 E.00341
G1 X104.445 Y151.375 E.00341
G1 X104.165 Y151.641 E.01437
;WIDTH:0.535767
G1 X104.072 Y151.868 E.00986
;WIDTH:0.571535
G1 X103.979 Y152.095 E.01058
;WIDTH:0.607303
G1 X103.886 Y152.323 E.01129
G1 X103.889 Y164.366 E.55385
;WIDTH:0.641504
G1 X103.927 Y164.726 E.01769
G1 X104.184 Y165.115 E.0227
G1 X103.342 Y165.115 E.04105
G1 X103.325 Y164.366 E.03654
;WIDTH:0.607303
G1 X103.322 Y152.323 E.55385
G1 X103.304 Y151.997 E.01502
;WIDTH:0.571535
G1 X103.286 Y151.671 E.01407
;WIDTH:0.535767
G1 X103.268 Y151.344 E.01312
G1 X103.286 Y151.018 E.01312
;WIDTH:0.571534
G1 X103.304 Y150.692 E.01407
;WIDTH:0.607301
G1 X103.322 Y150.366 E.01502
G1 X103.318 Y134.614 E.72444
;WIDTH:0.631397
G1 X103.291 Y134.31 E.01461
G1 X103.167 Y134.032 E.01461
;WIDTH:0.607301
G1 X98.731 Y126.066 E.41932
G1 X98.718 Y125.586 E.02209
G1 X98.718 Y106.6 E.87314
;WIDTH:0.650233
G1 X98.671 Y106.318 E.01416
;WIDTH:0.693165
G1 X98.625 Y106.036 E.01516
G1 X98.423 Y105.833 E.01516
;WIDTH:0.650232
G1 X98.221 Y105.63 E.01416
;WIDTH:0.607304
G1 X83.479 Y94.996 E.836
G1 X83.228 Y94.648 E.01969
G1 X68.733 Y71.063 E1.2732
G1 X68.718 Y70.54 E.02403
G1 X68.718 Y41.578 E1.33197
G1 X68.7 Y41.374 E.00942
M73 P7 R13
;WIDTH:0.571536
M73 P7 R13
G1 X68.682 Y41.17 E.00883
;WIDTH:0.535768
G1 X68.664 Y40.966 E.00823
;WIDTH:0.499999
G1 X68.664 Y39.764 E.04477
G1 X69.254 Y39.764 E.02196
;WIDTH:0.512192
G1 X69.866 Y39.77 E.02342
;WIDTH:0.547633
G1 X69.984 Y39.788 E.00492
;WIDTH:0.583073
G1 X70.103 Y39.805 E.00527
;WIDTH:0.618513
G1 X70.221 Y39.823 E.00561
G1 X70.479 Y39.817 E.01208
;WIDTH:0.60731
G1 X100.282 Y39.817 E1.37069
G1 X100.282 Y40.342 E.02412
G1 E-4.9 F4200
;WIPE_START
G1 F1800
G1 X99.282 Y40.343 E-2.1
;WIPE_END
G1 X106.914 Y40.226 Z.6 F18000
G1 X166.793 Y39.307 Z.6
G1 Z.2
G1 E7 F4200
;WIDTH:0.499999
G1 F1800
G1 X166.793 Y71.182 E1.18725
G1 X151.969 Y95.303 E1.0545
G1 X137.077 Y106.044 E.68388
G1 X136.868 Y106.288 E.01197
G1 X136.793 Y106.6 E.01197
G1 X136.793 Y126.176 E.72911
G1 X132.28 Y134.27 E.34518
G1 X132.193 Y134.604 E.01284
G1 X132.186 Y165.914 E1.16619
G1 X131.914 Y165.643 E.01431
G1 X130.637 Y165.643 E.04757
;WIDTH:0.532189
G1 X130.276 Y165.627 E.01442
;WIDTH:0.564378
G1 X129.914 Y165.61 E.01537
;WIDTH:0.567265
G1 X105.085 Y165.609 E1.06088
G1 X104.724 Y165.626 E.01544
;WIDTH:0.533632
G1 X104.363 Y165.643 E.01445
;WIDTH:0.499999
G1 X103.086 Y165.643 E.04757
G1 X102.814 Y165.914 E.01431
G1 X102.807 Y134.614 E1.16582
G1 X102.721 Y134.28 E.01283
M73 P8 R13
M73 P8 R13
G1 X98.207 Y126.176 E.34552
G1 X98.207 Y106.6 E.72911
G1 X98.132 Y106.288 E.01197
G1 X97.923 Y106.044 E.01197
G1 X83.031 Y95.303 E.68388
G1 X68.207 Y71.182 E1.0545
G1 X68.207 Y39.307 E1.18725
G1 X101.021 Y39.307 E1.22219
G1 X100.793 Y39.578 E.0132
G1 X100.793 Y40.893 E.04896
G1 X70.479 Y40.893 E1.12909
G1 X70.206 Y40.949 E.01036
G1 X69.994 Y41.093 E.00957
G1 X69.849 Y41.306 E.00957
G1 X69.793 Y41.578 E.01036
G1 X69.793 Y70.632 E1.08212
G1 X69.894 Y70.899 E.01066
G1 X84.144 Y94.086 E1.01366
G1 X84.327 Y94.283 E.01002
G1 X99.793 Y105.438 E.71025
G1 X99.793 Y125.586 E.75043
M73 P9 R13
M73 P9 R13
G1 X99.88 Y125.919 E.01284
G1 X104.393 Y134.024 E.34551
G1 X104.397 Y150.46 E.61219
G1 X104.532 Y150.774 E.01275
G1 X104.7 Y150.934 E.00862
;WIDTH:0.53219
G1 X104.891 Y151.009 E.00818
;WIDTH:0.564382
G1 X105.082 Y151.083 E.00872
G1 X129.918 Y151.089 E1.05532
G1 X130.109 Y151.015 E.00873
;WIDTH:0.532191
G1 X130.3 Y150.94 E.00819
;WIDTH:0.499999
G1 X130.468 Y150.78 E.00863
G1 X130.593 Y150.49 E.01178
G1 X130.603 Y150.371 E.00443
G1 X130.607 Y134.013 E.60927
G1 X135.164 Y125.841 E.3485
G1 X135.207 Y125.585 E.00966
G1 X135.207 Y105.438 E.75041
G1 X150.673 Y94.283 E.71025
G1 X150.856 Y94.086 E.01002
G1 X165.153 Y70.822 E1.01706
G1 X165.207 Y70.54 E.01066
G1 X165.207 Y41.578 E1.07872
G1 X165.151 Y41.306 E.01036
G1 X165.006 Y41.093 E.00957
G1 X164.794 Y40.949 E.00957
G1 X164.521 Y40.893 E.01036
G1 X134.207 Y40.893 E1.12909
G1 X134.207 Y39.578 E.04896
G1 X133.936 Y39.307 E.0143
G1 X166.753 Y39.307 E1.22232
G1 X167.25 Y38.85 F18000
M73 P10 R13
;TYPE:Outer wall
M73 P10 R13
G1 F1800
G1 X167.25 Y71.312 E1.20909
G1 X152.31 Y95.62 E1.06272
G1 X137.317 Y106.435 E.68855
G1 X137.25 Y106.6 E.00665
G1 X137.25 Y126.295 E.73354
G1 X132.679 Y134.493 E.34961
G1 X132.65 Y134.604 E.00428
G1 X132.643 Y165.371 E1.14595
;WIDTH:0.521459
G1 X132.629 Y176.868 E.4483
G1 X132.762 Y176.959 E.00627
G1 X140.014 Y180.585 E.31618
G1 X140.121 Y180.61 E.00429
G1 X146.769 Y180.61 E.25924
G1 X146.876 Y180.585 E.00429
G1 X154.765 Y176.641 E.34395
G1 X154.995 Y176.61 E.00903
G1 X155.671 Y176.61 E.02638
;WIDTH:0.562512
G1 X156.01 Y176.631 E.01435
;WIDTH:0.603564
G1 X156.348 Y176.651 E.01549
G1 X156.369 Y176.99 E.01549
;WIDTH:0.562512
G1 X156.389 Y177.328 E.01435
;WIDTH:0.521459
G1 X156.389 Y195.43 E.70587
;WIDTH:0.570102
G1 X156.365 Y195.76 E.01424
M73 P10 R12
;WIDTH:0.618745
M73 P10 R12
G1 X156.341 Y196.091 E.01555
G1 X156.006 Y196.109 E.01573
;WIDTH:0.58261
G1 X155.671 Y196.126 E.01474
;WIDTH:0.546474
G1 X79.328 Y196.089 E3.13261
;WIDTH:0.562474
G1 X78.99 Y196.068 E.01434
M73 P11 R12
;WIDTH:0.603487
M73 P11 R12
G1 X78.652 Y196.047 E.01548
G1 X78.631 Y195.709 E.01548
;WIDTH:0.562474
G1 X78.611 Y195.371 E.01434
;WIDTH:0.52146
G1 X78.611 Y177.328 E.70358
;WIDTH:0.562512
G1 X78.631 Y176.99 E.01435
;WIDTH:0.603563
G1 X78.652 Y176.651 E.01549
G1 X78.99 Y176.631 E.01549
;WIDTH:0.562511
G1 X79.329 Y176.61 E.01435
;WIDTH:0.527947
G1 X80.117 Y176.614 E.03114
G1 X80.326 Y176.686 E.00877
;WIDTH:0.52146
G1 X88.124 Y180.585 E.33997
G1 X88.231 Y180.61 E.00429
G1 X94.879 Y180.61 E.25924
G1 X94.986 Y180.585 E.00429
G1 X102.348 Y176.904 E.32097
G1 X102.371 Y176.745 E.00627
G1 X102.357 Y165.371 E.44352
;WIDTH:0.499999
G1 X102.35 Y134.614 E1.14559
G1 X102.321 Y134.503 E.00428
G1 X97.75 Y126.294 E.34994
G1 X97.75 Y106.525 E.73632
G1 X97.655 Y106.415 E.00542
G1 X82.69 Y95.62 E.68729
G1 X67.75 Y71.312 E1.06272
G1 X67.75 Y38.85 E1.20909
G1 X100.521 Y38.85 E1.22061
;WIDTH:0.52146
G1 X134.479 Y38.85 E1.32415
;WIDTH:0.499999
G1 X167.21 Y38.85 E1.21912
M73 P12 R12
M73 P12 R12
G1 E-4.9 F4200
;WIPE_START
G1 F1800
G1 X167.211 Y39.85 E-2.1
;WIPE_END
G1 X165.056 Y47.171 Z.6 F18000
G1 X130.43 Y164.786 Z.6
G1 Z.2
G1 E7 F4200
;TYPE:Inner wall
G1 F1800
G1 X130.36 Y164.892 E.00474
;WIDTH:0.532189
G1 X130.193 Y164.991 E.00771
;WIDTH:0.564378
G1 X130.027 Y165.089 E.00821
;WIDTH:0.567265
G1 X105.085 Y165.085 E1.06569
G1 X104.863 Y164.986 E.01038
;WIDTH:0.533632
G1 X104.641 Y164.887 E.00972
;WIDTH:0.499999
G1 X104.4 Y164.466 E.01809
G1 X104.397 Y152.323 E.45229
G1 X104.532 Y151.914 E.01605
G1 X104.7 Y151.754 E.00862
;WIDTH:0.53219
G1 X104.891 Y151.679 E.00819
;WIDTH:0.564381
G1 X105.083 Y151.605 E.00873
G1 X129.917 Y151.61 E1.05528
G1 X130.109 Y151.685 E.00873
;WIDTH:0.532191
G1 X130.3 Y151.759 E.00819
;WIDTH:0.499999
G1 X130.468 Y151.919 E.00863
G1 X130.603 Y152.328 E.01605
G1 X130.6 Y164.371 E.44855
G1 X130.57 Y164.573 E.0076
G1 X130.452 Y164.752 E.008
G1 X130.063 Y164.545 F18000
;TYPE:Outer wall
G1 F1800
G1 X129.914 Y164.6 E.0059
G1 X105.085 Y164.594 E.92478
G1 X104.937 Y164.539 E.00588
G1 X104.857 Y164.365 E.00714
G1 X104.854 Y152.322 E.44855
G1 X104.955 Y152.133 E.008
G1 X105.083 Y152.094 E.00497
G1 X129.917 Y152.1 E.92499
G1 X130.045 Y152.139 E.00497
G1 X130.146 Y152.328 E.008
G1 X130.143 Y164.371 E.44855
G1 X130.08 Y164.509 E.00563
G1 E-4.9 F4200
;WIPE_START
G1 F1800
M73 P13 R12
M73 P13 R12
G1 X129.914 Y164.6 E-.39636
G1 X129.103 Y164.599 E-1.70364
;WIPE_END
G1 X134.104 Y170.365 Z.6 F18000
G1 X155.886 Y195.479 Z.6
G1 Z.2
G1 E7 F4200
;WIDTH:0.618745
G1 F1800
G1 X155.862 Y195.587 E.00519
G1 X155.767 Y195.605 E.00455
;WIDTH:0.58261
G1 X155.671 Y195.623 E.00427
;WIDTH:0.546474
G1 X79.329 Y195.61 E3.1326
;WIDTH:0.562474
G1 X79.229 Y195.59 E.00429
;WIDTH:0.603487
G1 X79.13 Y195.569 E.00462
G1 X79.11 Y195.47 E.00462
;WIDTH:0.562474
G1 X79.089 Y195.371 E.00428
;WIDTH:0.52146
G1 X79.089 Y177.328 E.70358
;WIDTH:0.562512
G1 X79.11 Y177.229 E.00429
;WIDTH:0.603563
G1 X79.13 Y177.13 E.00462
G1 X79.229 Y177.109 E.00462
;WIDTH:0.562511
G1 X79.329 Y177.089 E.00429
;WIDTH:0.521459
G1 X80.005 Y177.089 E.02638
G1 X80.112 Y177.114 E.00429
G1 X87.91 Y181.013 E.33997
G1 X88.129 Y181.089 E.00903
G1 X94.879 Y181.089 E.26322
G1 X95.131 Y181.048 E.00995
G1 X102.452 Y177.387 E.31921
G1 X102.849 Y177.166 E.01772
G1 X102.847 Y166.328 E.42261
G1 X103.086 Y166.1 E.0129
;WIDTH:0.499999
G1 X131.914 Y166.1 E1.07373
;WIDTH:0.521461
G1 X132.153 Y166.328 E.0129
G1 X132.151 Y176.745 E.40619
G1 X132.171 Y177.199 E.01772
G1 X139.8 Y181.013 E.3326
G1 X140.019 Y181.089 E.00903
G1 X146.769 Y181.089 E.26322
G1 X147.021 Y181.048 E.00995
G1 X154.888 Y177.114 E.34299
G1 X155.671 Y177.089 E.03057
;WIDTH:0.562512
G1 X155.771 Y177.109 E.00429
;WIDTH:0.603564
G1 X155.87 Y177.13 E.00462
G1 X155.89 Y177.229 E.00462
;WIDTH:0.562512
G1 X155.911 Y177.328 E.00429
;WIDTH:0.521459
G1 X155.911 Y195.371 E.70358
;WIDTH:0.570102
G1 X155.895 Y195.44 E.00303
G1 E-4.9 F4200
;WIPE_START
G1 F1800
G1 X155.862 Y195.587 E-.31624
G1 X155.767 Y195.605 E-.2037
G1 X155.671 Y195.623 E-.2037
