; HEADER_BLOCK_START
; generated by OrcaSlicer 2.2.0 on 2025-03-20 at 22:43:28
; total layer number: 98
; filament_density: 1.24
; filament_diameter: 1.75
; max_z_height: 14.00
; HEADER_BLOCK_END

; THUMBNAIL_BLOCK_START

;
; THUMBNAIL_BLOCK_END

; THUMBNAIL_BLOCK_START

;
; THUMBNAIL_BLOCK_END

; external perimeters extrusion width = 0.40mm
; perimeters extrusion width = 0.45mm
; infill extrusion width = 0.45mm
; solid infill extrusion width = 0.40mm
; top infill extrusion width = 0.40mm
; support material extrusion width = 0.40mm
; first layer extrusion width = 0.50mm

; EXECUTABLE_BLOCK_START
M73 P0 R24
M201 X1000 Y1000 Z100 E10000
M203 X500 Y500 Z10 E60
M204 P1000 R1000 T1000
M205 X10.00 Y10.00 Z0.30 E5.00 ; sets the jerk limits, mm/sec
;TYPE:Custom
; BIQU B1 Start G-code
M117 Getting the bed up to temp!
M140 S60; Set Heat Bed temperature
M190 S60; Wait for Heat Bed temperature
M117 Getting the extruder up to temp!
M104 S220; Set Extruder temperature
G92 E0; Reset Extruder
M117 Homing axes
G28; Home all axes
M109 S220; Wait for Extruder temperature
G1 Z2.0 F3000; Move Z Axis up little to prevent scratching of Heat Bed
G1 X4.1 Y20 Z0.3 F5000.0; Move to start position
M117 Purging
G1 X4.1 Y200.0 Z0.3 F1500.0 E15; Draw the first line
G1 X4.4 Y200.0 Z0.3 F5000.0; Move to side a little
G1 X4.4 Y20 Z0.3 F1500.0 E30; Draw the second line
G92 E0; Reset Extruder
M117 Lets make
G1 Z2.0 F3000; Move Z Axis up little to prevent scratching of Heat Bed
M73 P1 R23
M73 P1 R23
G1 X5 Y20 Z0.3 F5000.0; Move over to prevent blob squish
G90
G21
M83 ; use relative distances for extrusion
; filament start gcode
M106 S0
;LAYER_CHANGE
;Z:0.2
;HEIGHT:0.2
;BEFORE_LAYER_CHANGE
;0.2
G92 E0

G1 E-7 F4200
;_SET_FAN_SPEED_CHANGING_LAYER
M204 S1000
G1 X85.846 Y105.232 F18000
G1 Z.6
G1 Z.2
G1 E7 F4200
;TYPE:Skirt
;WIDTH:0.5
G1 F3000
G1 X95.123 Y104.149 E.34788
G1 X139.898 Y104.151 E1.66773
G1 X157.638 Y106.212 E.66519
G1 X158.574 Y106.408 E.0356
G1 X159.91 Y106.928 E.0534
G1 X161.298 Y107.811 E.06129
G1 X162.512 Y109.064 E.06498
G1 X163.299 Y110.374 E.05691
G1 X163.753 Y111.619 E.04938
G1 X163.961 Y112.721 E.04174
G1 X164.006 Y115.5 E.10353
G1 X163.949 Y116.372 E.03256
G1 X163.742 Y117.424 E.03992
G1 X163.01 Y119.162 E.07024
G1 X162.339 Y120.148 E.04444
G1 X161.765 Y120.784 E.0319
G1 X153.615 Y128.784 E.42536
G1 X152.613 Y129.593 E.04796
G1 X151.612 Y130.155 E.04275
G1 X150.313 Y130.622 E.05142
G1 X149.279 Y130.811 E.03914
G1 X148.5 Y130.856 E.02907
G1 X86.5 Y130.856 E2.30926
G1 X85.235 Y130.741 E.04731
G1 X84.12 Y130.445 E.04297
G1 X83.24 Y130.072 E.0356
G1 X81.852 Y129.189 E.06129
G1 X73.101 Y120.65 E.45538
G1 X72.488 Y119.936 E.03507
G1 X71.905 Y119.036 E.03992
G1 X71.354 Y117.737 E.05255
G1 X71.09 Y116.651 E.04163
G1 X70.994 Y115.5 E.04304
G1 X71.051 Y112.628 E.107
G1 X71.405 Y111.12 E.05769
G1 X71.99 Y109.838 E.05248
G1 X72.406 Y109.188 E.02876
G1 X73.11 Y108.347 E.04084
G1 X74.237 Y107.407 E.05465
G1 X75.238 Y106.845 E.04275
G1 X76.113 Y106.504 E.03496
G1 X77.199 Y106.24 E.04163
G1 X85.806 Y105.236 E.32277
G1 X85.859 Y105.689 F18000
G1 F3000
G1 X95.153 Y104.606 E.34852
G1 X139.865 Y104.607 E1.66534
G1 X157.585 Y106.666 E.66445
G1 X158.473 Y106.854 E.03382
G1 X159.732 Y107.348 E.05037
G1 X160.995 Y108.153 E.05575
G1 X162.161 Y109.357 E.06246
G1 X162.874 Y110.542 E.05151
G1 X163.306 Y111.715 E.04658
G1 X163.505 Y112.751 E.03927
G1 X163.549 Y115.5 E.1024
G1 X163.493 Y116.338 E.0313
G1 X163.296 Y117.323 E.03741
G1 X162.626 Y118.916 E.06435
G1 X161.997 Y119.845 E.04177
G1 X161.445 Y120.458 E.03076
G1 X153.295 Y128.458 E.42536
G1 X152.375 Y129.203 E.04408
G1 X151.446 Y129.729 E.03976
G1 X150.219 Y130.174 E.04862
G1 X149.249 Y130.355 E.03676
G1 X148.5 Y130.399 E.02795
G1 X86.5 Y130.399 E2.30926
G1 X85.336 Y130.295 E.04354
G1 X84.298 Y130.024 E.03994
G1 X83.418 Y129.652 E.0356
G1 X82.155 Y128.847 E.05575
G1 X73.421 Y120.324 E.45455
G1 X72.839 Y119.643 E.03338
G1 X72.295 Y118.798 E.03741
G1 X71.78 Y117.572 E.04955
G1 X71.538 Y116.558 E.03882
G1 X71.451 Y115.5 E.03954
G1 X71.507 Y112.662 E.10574
G1 X71.826 Y111.298 E.05216
G1 X72.374 Y110.084 E.04961
G1 X72.791 Y109.434 E.02876
G1 X73.452 Y108.651 E.03817
G1 X74.475 Y107.797 E.04963
G1 X75.404 Y107.271 E.03976
G1 X76.278 Y106.93 E.03496
G1 X77.292 Y106.688 E.03882
G1 X85.819 Y105.694 E.31975
; printing object sensorHolder.STL id:1 copy 0
G1 E-5.6 F4200
;WIPE_START
G1 F3000
G1 X86.812 Y105.578 E-1.4
;WIPE_END
G1 X87.996 Y113.118 Z.6 F18000
G1 X88.001 Y113.15 Z.6
G1 Z.2
G1 E7 F4200
;TYPE:Support
G1 F1800
G1 X78.43 Y113.15 E.35649
G1 X78.43 Y109.857 E.12264
G1 X88.001 Y109.857 E.35649
G1 X88.001 Y113.081 E.12008
G1 X87.589 Y112.739 F18000
G1 F1800
G1 X78.841 Y112.739 E.32584
G1 X78.841 Y110.269 E.09199
G1 X87.589 Y110.269 E.32584
G1 X87.589 Y112.739 E.09199
G1 X87.081 Y112.231 F18000
G1 F1800
G1 X79.349 Y112.231 E.28801
G1 X79.349 Y110.777 E.05416
G1 X87.081 Y110.777 E.28801
G1 X87.081 Y112.231 E.05416
G1 E-4.9 F4200
;WIPE_START
G1 F1800
G1 X87.081 Y111.231 E-2.1
;WIPE_END
G1 X86.22 Y118.814 Z.6 F18000
G1 X86.15 Y119.428 Z.6
G1 Z.2
G1 E7 F4200
G1 F1800
M73 P2 R23
M73 P2 R23
G1 X78.43 Y119.428 E.28756
G1 X78.43 Y115.85 E.13328
G1 X86.15 Y115.85 E.28756
G1 X86.15 Y119.36 E.13073
G1 X85.739 Y116.261 F18000
G1 F1800
G1 X85.739 Y119.017 E.10264
G1 X78.841 Y119.017 E.25691
G1 X78.841 Y116.261 E.10264
G1 X85.739 Y116.261 E.25691
G1 X85.231 Y116.769 F18000
G1 F1800
G1 X85.231 Y118.509 E.06481
G1 X79.349 Y118.509 E.21908
G1 X79.349 Y116.769 E.06481
G1 X85.231 Y116.769 E.21908
G1 X84.723 Y117.277 F18000
G1 F1800
G1 X84.723 Y118.001 E.02698
G1 X79.857 Y118.001 E.18125
G1 X79.857 Y117.277 E.02698
G1 X84.723 Y117.277 E.18125
G1 E-4.9 F4200
;WIPE_START
G1 F1800
G1 X83.723 Y117.277 E-2.1
;WIPE_END
G1 X91.352 Y117.502 Z.6 F18000
G1 X156.57 Y119.428 Z.6
G1 Z.2
G1 E7 F4200
G1 F1800
G1 X148.85 Y119.428 E.28756
G1 X148.85 Y115.85 E.13328
G1 X156.57 Y115.85 E.28756
G1 X156.57 Y119.36 E.13073
G1 X149.261 Y116.261 F18000
G1 F1800
G1 X156.159 Y116.261 E.25691
G1 X156.159 Y119.017 E.10264
G1 X149.261 Y119.017 E.25691
G1 X149.261 Y116.261 E.10264
G1 X149.769 Y116.769 F18000
G1 F1800
G1 X155.651 Y116.769 E.21908
G1 X155.651 Y118.509 E.06481
G1 X149.769 Y118.509 E.21908
G1 X149.769 Y116.769 E.06481
G1 X150.277 Y117.277 F18000
G1 F1800
G1 X155.143 Y117.277 E.18125
G1 X155.143 Y118.001 E.02698
G1 X150.277 Y118.001 E.18125
G1 X150.277 Y117.277 E.02698
G1 E-4.9 F4200
;WIPE_START
G1 F1800
G1 X150.277 Y118.001 E-1.52091
G1 X150.553 Y118.001 E-.57909
;WIPE_END
G1 X156.495 Y113.211 Z.6 F18000
G1 X156.57 Y113.15 Z.6
G1 Z.2
G1 E7 F4200
G1 F1800
G1 X146.999 Y113.15 E.35649
G1 X146.999 Y109.857 E.12264
G1 X156.57 Y109.857 E.35649
G1 X156.57 Y113.081 E.12008
G1 X147.411 Y112.739 F18000
G1 F1800
G1 X147.411 Y110.269 E.09199
G1 X156.159 Y110.269 E.32584
G1 X156.159 Y112.739 E.09199
G1 X147.411 Y112.739 E.32584
G1 X147.919 Y112.231 F18000
G1 F1800
G1 X147.919 Y110.777 E.05416
G1 X155.651 Y110.777 E.28801
G1 X155.651 Y112.231 E.05416
G1 X147.919 Y112.231 E.28801
G1 E-4.9 F4200
;WIPE_START
G1 F1800
G1 X148.919 Y112.231 E-2.1
;WIPE_END
G1 X147.919 Y109.058 Z.6 F18000
G1 Z.2
G1 E7 F4200
;TYPE:Brim
G1 F1800
G1 X156.642 Y109.058 E.32489
G1 X157.29 Y109.106 E.02422
G1 X157.913 Y109.246 E.02377
G1 X158.756 Y109.603 E.03411
G1 X159.374 Y110 E.02737
G1 X159.853 Y110.426 E.02386
G1 X160.264 Y110.919 E.0239
G1 X160.597 Y111.464 E.0238
G1 X160.908 Y112.25 E.03148
G1 X161.054 Y112.93 E.02589
G1 X161.092 Y113.508 E.02157
G1 X161.092 Y115.492 E.0739
G1 X161.044 Y116.14 E.02422
G1 X160.904 Y116.763 E.02377
G1 X160.547 Y117.606 E.03411
G1 X160.15 Y118.224 E.02737
G1 X159.724 Y118.703 E.02386
G1 X159.231 Y119.114 E.0239
G1 X158.686 Y119.447 E.0238
G1 X157.9 Y119.758 E.03148
G1 X157.22 Y119.904 E.02589
G1 X156.642 Y119.942 E.02157
G1 X153.171 Y119.942 E.12931
G1 X153.03 Y119.991 E.00555
G1 X152.942 Y120.171 E.00745
G1 X152.942 Y123.492 E.12369
G1 X152.894 Y124.14 E.02422
G1 X152.754 Y124.761 E.02373
G1 X152.351 Y125.689 E.03766
G1 X152.001 Y126.224 E.02381
G1 X151.574 Y126.703 E.0239
G1 X151.081 Y127.114 E.0239
G1 X150.536 Y127.447 E.02378
G1 X149.698 Y127.773 E.0335
G1 X149.071 Y127.904 E.02386
G1 X148.492 Y127.942 E.02159
G1 X146.508 Y127.942 E.0739
G1 X145.86 Y127.894 E.02422
G1 X145.237 Y127.754 E.02377
G1 X144.394 Y127.397 E.03411
G1 X143.776 Y127 E.02737
G1 X143.297 Y126.574 E.02386
G1 X142.886 Y126.081 E.0239
G1 X142.553 Y125.536 E.0238
G1 X142.242 Y124.75 E.03148
G1 X142.096 Y124.07 E.02589
G1 X142.058 Y123.492 E.02157
G1 X142.058 Y120.171 E.12372
G1 X142.009 Y120.03 E.00555
G1 X141.829 Y119.942 E.00745
G1 X93.171 Y119.942 E1.81234
G1 X93.03 Y119.991 E.00555
G1 X92.942 Y120.171 E.00745
G1 X92.942 Y123.492 E.12369
G1 X92.894 Y124.14 E.02422
G1 X92.754 Y124.763 E.02377
G1 X92.397 Y125.606 E.03411
G1 X92 Y126.224 E.02737
G1 X91.574 Y126.703 E.02386
G1 X91.081 Y127.114 E.0239
G1 X90.536 Y127.447 E.02378
G1 X89.698 Y127.773 E.0335
G1 X89.071 Y127.904 E.02386
G1 X88.492 Y127.942 E.02159
G1 X86.508 Y127.942 E.0739
G1 X85.86 Y127.894 E.02422
G1 X85.237 Y127.754 E.02377
G1 X84.394 Y127.397 E.03411
G1 X83.776 Y127 E.02737
G1 X83.297 Y126.574 E.02386
G1 X82.886 Y126.081 E.0239
G1 X82.553 Y125.536 E.0238
G1 X82.242 Y124.75 E.03148
G1 X82.096 Y124.07 E.02589
G1 X82.058 Y123.492 E.02157
G1 X82.058 Y120.171 E.12372
G1 X82.009 Y120.03 E.00555
G1 X81.829 Y119.942 E.00745
M73 P3 R23
M73 P3 R23
G1 X78.358 Y119.942 E.12927
G1 X77.71 Y119.894 E.02422
G1 X77.087 Y119.754 E.02377
G1 X76.244 Y119.397 E.03411
G1 X75.626 Y119 E.02737
G1 X75.147 Y118.574 E.02386
G1 X74.736 Y118.081 E.0239
G1 X74.403 Y117.536 E.02378
G1 X74.077 Y116.698 E.0335
G1 X73.946 Y116.071 E.02386
G1 X73.908 Y115.492 E.02159
G1 X73.908 Y113.508 E.0739
G1 X73.956 Y112.86 E.02422
G1 X74.096 Y112.237 E.02377
G1 X74.453 Y111.394 E.03411
G1 X74.85 Y110.776 E.02737
G1 X75.276 Y110.297 E.02386
G1 X75.769 Y109.886 E.0239
G1 X76.314 Y109.553 E.02378
G1 X77.152 Y109.227 E.0335
G1 X77.779 Y109.096 E.02386
G1 X78.358 Y109.058 E.02159
G1 X91.492 Y109.058 E.48919
G1 X91.683 Y108.954 E.0081
G1 X91.799 Y108.776 E.00792
G1 X92.226 Y108.297 E.0239
G1 X92.719 Y107.886 E.0239
G1 X93.264 Y107.553 E.02378
G1 X94.102 Y107.227 E.0335
G1 X94.729 Y107.096 E.02386
G1 X95.308 Y107.058 E.02159
G1 X98.292 Y107.058 E.11114
G1 X98.94 Y107.106 E.02422
G1 X99.561 Y107.246 E.02373
G1 X100.489 Y107.649 E.03766
G1 X101.024 Y107.999 E.02381
G1 X101.502 Y108.425 E.02386
G1 X101.95 Y108.974 E.02639
G1 X102.127 Y109.058 E.0073
G1 X132.892 Y109.058 E1.14585
G1 X133.083 Y108.954 E.0081
G1 X133.199 Y108.776 E.00792
G1 X133.626 Y108.297 E.0239
G1 X134.119 Y107.886 E.0239
G1 X134.664 Y107.553 E.0238
G1 X135.45 Y107.242 E.03148
G1 X136.13 Y107.096 E.02589
G1 X136.708 Y107.058 E.02157
G1 X139.692 Y107.058 E.11114
G1 X140.34 Y107.106 E.02422
G1 X140.963 Y107.246 E.02377
G1 X141.806 Y107.603 E.03411
G1 X142.424 Y108 E.02737
G1 X142.902 Y108.425 E.02382
G1 X143.35 Y108.974 E.02639
G1 X143.527 Y109.058 E.0073
G1 X147.879 Y109.058 E.16207
G1 E-4.9 F4200
;WIPE_START
G1 F1800
G1 X148.879 Y109.058 E-2.1
;WIPE_END
G1 X141.247 Y109.136 Z.6 F18000
G1 X77.515 Y109.787 Z.6
G1 Z.2
G1 E7 F4200
G1 F1800
G1 X77.515 Y113.23 E.12826
G1 X77.566 Y113.485 E.00969
G1 X77.566 Y115.515 E.07561
G1 X77.515 Y115.77 E.00965
G1 X77.515 Y119.21 E.12815
G1 X77.468 Y119.314 E.00426
G1 X77.348 Y119.344 E.00459
G1 X77.217 Y119.312 E.00504
G1 X76.469 Y118.995 E.03025
G1 X75.895 Y118.627 E.02541
G1 X75.47 Y118.247 E.02123
G1 X75.115 Y117.822 E.02062
G1 X74.821 Y117.343 E.02093
G1 X74.521 Y116.578 E.03061
G1 X74.399 Y115.999 E.02203
G1 X74.365 Y115.473 E.01964
G1 X74.365 Y113.53 E.07235
G1 X74.408 Y112.938 E.02214
G1 X74.538 Y112.367 E.02181
G1 X74.855 Y111.619 E.03025
G1 X75.223 Y111.045 E.02541
G1 X75.603 Y110.62 E.02123
G1 X76.044 Y110.253 E.02138
G1 X76.53 Y109.96 E.02113
G1 X77.33 Y109.659 E.03184
G1 X77.444 Y109.667 E.00426
G1 X77.495 Y109.752 E.00372
G1 X76.987 Y110.327 F18000
G1 F1800
G1 X77.058 Y110.447 E.00521
G1 X77.058 Y113.219 E.10325
G1 X77.109 Y113.544 E.01224
G1 X77.109 Y115.457 E.07125
G1 X77.058 Y115.781 E.0122
G1 X77.058 Y118.542 E.10284
G1 X77.011 Y118.646 E.00426
G1 X76.868 Y118.668 E.00539
G1 X76.673 Y118.583 E.0079
G1 X76.181 Y118.268 E.02175
G1 X75.807 Y117.936 E.01866
G1 X75.482 Y117.546 E.01888
G1 X75.227 Y117.127 E.01826
G1 X74.965 Y116.457 E.0268
G1 X74.853 Y115.927 E.02018
G1 X74.822 Y115.453 E.01769
G1 X74.822 Y113.552 E.07081
G1 X74.861 Y113.016 E.02004
G1 X74.979 Y112.496 E.01984
G1 X75.256 Y111.844 E.0264
G1 X75.582 Y111.331 E.02261
G1 X75.914 Y110.957 E.01863
G1 X76.302 Y110.633 E.01883
G1 X76.742 Y110.368 E.01913
G1 X76.873 Y110.319 E.00521
G1 X76.947 Y110.324 E.00277
G1 X76.487 Y111.137 F18000
G1 F1800
G1 X76.581 Y111.201 E.00426
G1 X76.601 Y111.272 E.00275
G1 X76.601 Y113.21 E.07218
G1 X76.652 Y113.59 E.01429
G1 X76.652 Y115.411 E.06781
G1 X76.601 Y115.79 E.01424
G1 X76.601 Y117.725 E.07207
G1 X76.553 Y117.829 E.00426
G1 X76.444 Y117.86 E.00426
G1 X76.373 Y117.827 E.0029
G1 X76.143 Y117.623 E.01144
G1 X75.849 Y117.271 E.01709
G1 X75.634 Y116.913 E.01557
G1 X75.402 Y116.315 E.0239
G1 X75.309 Y115.875 E.01676
G1 X75.279 Y115.443 E.01611
G1 X75.279 Y113.574 E.06962
G1 X75.314 Y113.094 E.01792
G1 X75.413 Y112.649 E.01698
G1 X75.668 Y112.047 E.02435
G1 X75.942 Y111.617 E.019
G1 X76.241 Y111.28 E.01678
G1 X76.376 Y111.167 E.00657
G1 X76.448 Y111.147 E.00277
G1 E-4.9 F4200
;WIPE_START
G1 F1800
G1 X76.581 Y111.201 E-.30181
G1 X76.601 Y111.272 E-.15515
G1 X76.601 Y112.054 E-1.64304
;WIPE_END
G1 X76.06 Y112.645 Z.6 F18000
G1 Z.2
G1 E7 F4200
G1 F1800
G1 X76.144 Y112.771 E.00565
G1 X76.144 Y113.202 E.01604
G1 X76.195 Y113.63 E.01606
G1 X76.195 Y115.371 E.06487
G1 X76.144 Y115.798 E.016
G1 X76.144 Y116.232 E.01617
G1 X76.096 Y116.336 E.00426
G1 X75.986 Y116.368 E.00426
G1 X75.874 Y116.265 E.00568
G1 X75.762 Y115.802 E.01774
G1 X75.736 Y115.423 E.01415
G1 X75.736 Y113.585 E.06844
G1 X75.77 Y113.147 E.01637
G1 X75.874 Y112.737 E.01574
G1 X75.946 Y112.648 E.00426
G1 X76.02 Y112.646 E.00277
G1 E-4.9 F4200
;WIPE_START
G1 F1800
G1 X76.144 Y112.771 E-.36968
G1 X76.144 Y113.202 E-.90433
G1 X76.191 Y113.592 E-.826
;WIPE_END
G1 X77.972 Y112.646 Z.6 F18000
G1 Z.2
G1 E7 F4200
G1 F1800
G1 X77.972 Y109.763 E.10739
G1 X78.039 Y109.601 E.00651
G1 X78.173 Y109.467 E.00705
G1 X78.335 Y109.4 E.00651
G1 X88.095 Y109.4 E.36354
G1 X88.257 Y109.467 E.00651
G1 X88.391 Y109.601 E.00705
G1 X88.458 Y109.763 E.00651
G1 X88.458 Y113.081 E.12361
G1 X88.427 Y113.171 E.00355
G1 X94.971 Y113.171 E.24377
G1 X94.971 Y111.5 E.06226
G1 X95 Y111.389 E.00426
G1 X95.047 Y111.305 E.00361
G1 X95.184 Y111.196 E.00652
G1 X95.3 Y111.171 E.00442
G1 X98.3 Y111.171 E.11174
G1 X98.411 Y111.2 E.00426
G1 X98.495 Y111.247 E.00361
G1 X98.604 Y111.384 E.00652
G1 X98.62 Y111.437 E.00206
G1 X98.629 Y113.171 E.06461
G1 X136.371 Y113.171 E1.40578
G1 X136.371 Y111.5 E.06226
G1 X136.4 Y111.389 E.00426
G1 X136.447 Y111.305 E.00361
G1 X136.584 Y111.196 E.00652
G1 X136.7 Y111.171 E.00442
G1 X139.7 Y111.171 E.11174
G1 X139.811 Y111.2 E.00426
G1 X139.895 Y111.247 E.00361
G1 X140.004 Y111.384 E.00652
G1 X140.02 Y111.437 E.00206
G1 X140.029 Y113.171 E.06461
G1 X146.542 Y113.171 E.24262
G1 X146.542 Y109.763 E.12696
G1 X146.609 Y109.601 E.00651
G1 X146.743 Y109.467 E.00705
G1 X146.905 Y109.4 E.00651
G1 X156.665 Y109.4 E.36354
G1 X156.827 Y109.467 E.00651
G1 X156.961 Y109.601 E.00705
G1 X157.028 Y109.763 E.00651
G1 X157.028 Y113.081 E.12361
G1 X156.979 Y113.222 E.00555
G1 X156.869 Y113.276 E.00457
G1 X156.954 Y113.384 E.00512
G1 X156.979 Y113.5 E.00442
G1 X156.979 Y115.5 E.07449
G1 X156.956 Y115.589 E.00341
G1 X157.028 Y115.755 E.00676
G1 X157.028 Y119.36 E.13426
G1 X156.979 Y119.501 E.00555
G1 X156.799 Y119.588 E.00745
G1 X156.799 Y119.657 E.00255
G1 X156.75 Y119.798 E.00555
G1 X156.57 Y119.886 E.00745
G1 X148.829 Y119.886 E.28836
G1 X148.829 Y123.5 E.13463
G1 X148.8 Y123.611 E.00426
G1 X148.753 Y123.695 E.00361
G1 X148.616 Y123.804 E.00652
G1 X148.5 Y123.829 E.00442
G1 X146.5 Y123.829 E.07449
G1 X146.389 Y123.8 E.00426
G1 X146.305 Y123.753 E.00361
G1 X146.196 Y123.616 E.00652
G1 X146.171 Y123.5 E.00442
