; HEADER_BLOCK_START
; generated by OrcaSlicer 2.2.0 on 2025-03-18 at 19:26:58
; total layer number: 88
; filament_density: 1.24
; filament_diameter: 1.75
; max_z_height: 17.60
; HEADER_BLOCK_END

; THUMBNAIL_BLOCK_START

;
; THUMBNAIL_BLOCK_END

; THUMBNAIL_BLOCK_START

;
; THUMBNAIL_BLOCK_END

; external perimeters extrusion width = 0.40mm
; perimeters extrusion width = 0.45mm
; infill extrusion width = 0.45mm
; solid infill extrusion width = 0.40mm
; top infill extrusion width = 0.40mm
; first layer extrusion width = 0.50mm

; external perimeters extrusion width = 0.40mm
; perimeters extrusion width = 0.45mm
; infill extrusion width = 0.45mm
; solid infill extrusion width = 0.40mm
; top infill extrusion width = 0.40mm
; first layer extrusion width = 0.50mm

; EXECUTABLE_BLOCK_START
M73 P0 R57
M201 X1000 Y1000 Z100 E10000
M203 X500 Y500 Z10 E60
M204 P1000 R1000 T1000
M205 X10.00 Y10.00 Z0.30 E5.00 ; sets the jerk limits, mm/sec
;TYPE:Custom
; BIQU B1 Start G-code
M117 Getting the bed up to temp!
M140 S60; Set Heat Bed temperature
M190 S60; Wait for Heat Bed temperature
M117 Getting the extruder up to temp!
M104 S220; Set Extruder temperature
G92 E0; Reset Extruder
M117 Homing axes
G28; Home all axes
M109 S220; Wait for Extruder temperature
G1 Z2.0 F3000; Move Z Axis up little to prevent scratching of Heat Bed
G1 X4.1 Y20 Z0.3 F5000.0; Move to start position
M117 Purging
G1 X4.1 Y200.0 Z0.3 F1500.0 E15; Draw the first line
G1 X4.4 Y200.0 Z0.3 F5000.0; Move to side a little
G1 X4.4 Y20 Z0.3 F1500.0 E30; Draw the second line
G92 E0; Reset Extruder
M117 Lets make
G1 Z2.0 F3000; Move Z Axis up little to prevent scratching of Heat Bed
G1 X5 Y20 Z0.3 F5000.0; Move over to prevent blob squish
G90
G21
M83 ; use relative distances for extrusion
; filament start gcode
M106 S0
;LAYER_CHANGE
;Z:0.2
;HEIGHT:0.2
;BEFORE_LAYER_CHANGE
;0.2
G92 E0

G1 E-7 F4200
;_SET_FAN_SPEED_CHANGING_LAYER
M204 S1000
G1 X93.513 Y90.293 F18000
G1 Z.6
G1 Z.2
G1 E7 F4200
;TYPE:Skirt
;WIDTH:0.5
G1 F3000
G1 X94.318 Y88.987 E.05713
G1 X95.624 Y87.298 E.07952
G1 X97.102 Y85.758 E.07952
G1 X98.736 Y84.384 E.07952
G1 X100.753 Y83.046 E.09015
G1 X102.655 Y82.075 E.07952
G1 X104.649 Y81.312 E.07952
G1 X106.712 Y80.765 E.07952
G1 X108.822 Y80.44 E.07952
G1 X110.669 Y80.342 E.06889
G1 X112.792 Y80.44 E.07913
G1 X114.911 Y80.764 E.07985
G1 X116.976 Y81.312 E.07958
G1 X118.97 Y82.075 E.07952
G1 X121.118 Y83.191 E.09015
G1 X122.888 Y84.384 E.07952
G1 X124.522 Y85.758 E.07952
G1 X125.812 Y87.083 E.06889
G1 X127.143 Y88.753 E.07952
G1 X128.288 Y90.555 E.07952
G1 X129.321 Y92.665 E.08749
G1 X142.697 Y126.868 E1.36788
G1 X143.349 Y128.674 E.07155
G1 X143.871 Y130.745 E.07952
G1 X144.169 Y132.859 E.07952
G1 X144.241 Y134.993 E.07952
G1 X144.048 Y137.405 E.09015
G1 X143.638 Y139.5 E.07952
G1 X143.007 Y141.54 E.07952
G1 X142.163 Y143.501 E.07952
G1 X141.115 Y145.361 E.07952
G1 X139.875 Y147.1 E.07952
G1 X138.458 Y148.696 E.07952
G1 X136.888 Y150.125 E.07907
G1 X135.156 Y151.394 E.07997
G1 X133.563 Y152.333 E.06889
G1 X131.625 Y153.229 E.07952
G1 X129.603 Y153.914 E.07952
G1 X127.519 Y154.38 E.07952
G1 X125.398 Y154.622 E.07952
G1 X124.259 Y154.661 E.04244
G1 X122.978 Y154.622 E.04776
G1 X121.139 Y154.426 E.06889
G1 X119.049 Y153.989 E.07952
G1 X116.751 Y153.229 E.09015
G1 X114.813 Y152.333 E.07952
G1 X113.219 Y151.394 E.06889
G1 X111.497 Y150.133 E.07952
G1 X109.718 Y148.491 E.09015
G1 X108.324 Y146.875 E.07952
G1 X107.109 Y145.119 E.07952
G1 X106.088 Y143.244 E.07952
G1 X105.369 Y141.54 E.06889
G1 X91.966 Y107.271 E1.37054
G1 X91.295 Y105.02 E.0875
G1 X90.914 Y102.919 E.07952
G1 X90.759 Y100.79 E.07952
G1 X90.831 Y98.656 E.07952
G1 X91.076 Y96.823 E.06889
G1 X91.568 Y94.745 E.07952
G1 X92.278 Y92.732 E.07952
G1 X93.198 Y90.805 E.07952
G1 X93.492 Y90.327 E.0209
G1 X93.88 Y90.566 F18000
G1 F3000
G1 X94.705 Y89.229 E.05852
G1 X95.983 Y87.581 E.07771
G1 X97.604 Y85.916 E.08653
G1 X99.218 Y84.594 E.07771
G1 X100.964 Y83.451 E.07771
G1 X102.821 Y82.501 E.07771
G1 X104.769 Y81.753 E.07771
G1 X106.785 Y81.216 E.07771
G1 X108.847 Y80.897 E.07771
G1 X110.694 Y80.798 E.06889
G1 X112.767 Y80.896 E.07732
G1 X114.838 Y81.216 E.07805
G1 X116.856 Y81.753 E.07776
G1 X119.019 Y82.599 E.08653
G1 X120.865 Y83.572 E.07771
G1 X122.596 Y84.736 E.07771
G1 X124.195 Y86.077 E.07771
G1 X125.641 Y87.581 E.07771
G1 X126.783 Y89.035 E.06889
G1 X127.9 Y90.797 E.07771
G1 X128.896 Y92.831 E.08433
G1 X142.271 Y127.034 E1.36788
G1 X142.919 Y128.829 E.0711
G1 X143.427 Y130.853 E.07771
G1 X143.716 Y132.919 E.07771
G1 X143.784 Y135.005 E.07771
G1 X143.599 Y137.321 E.08653
G1 X143.2 Y139.368 E.07771
G1 X142.586 Y141.362 E.07771
G1 X141.763 Y143.28 E.07771
G1 X140.741 Y145.099 E.07771
G1 X139.531 Y146.799 E.07771
G1 X138.148 Y148.36 E.07771
G1 X136.615 Y149.758 E.07727
G1 X134.924 Y151 E.07815
G1 X133.12 Y152.049 E.07771
G1 X131.436 Y152.813 E.06889
G1 X129.459 Y153.48 E.07771
G1 X127.423 Y153.933 E.07771
G1 X125.349 Y154.168 E.07771
G1 X124.247 Y154.204 E.04108
G1 X123.026 Y154.168 E.0455
G1 X121.187 Y153.971 E.06889
G1 X119.145 Y153.543 E.07771
G1 X116.94 Y152.813 E.08653
G1 X115.045 Y151.939 E.07771
G1 X113.254 Y150.869 E.07771
G1 X111.769 Y149.766 E.06889
G1 X110.228 Y148.36 E.07771
G1 X108.698 Y146.612 E.08653
G1 X107.509 Y144.897 E.07771
G1 X106.613 Y143.28 E.06889
G1 X105.79 Y141.362 E.07771
G1 X92.392 Y107.104 E1.37009
G1 X91.744 Y104.935 E.08434
G1 X91.37 Y102.882 E.07771
G1 X91.216 Y100.802 E.07771
G1 X91.284 Y98.716 E.07771
G1 X91.529 Y96.883 E.06889
G1 X92.012 Y94.854 E.07771
G1 X92.708 Y92.887 E.07771
G1 X93.609 Y91.005 E.07771
G1 X93.859 Y90.6 E.0177
; printing object chassisWheel_v3.STL id:2216009104128 copy 0
G1 E-5.6 F4200
;WIPE_START
G1 F3000
G1 X94.384 Y89.749 E-1.4
;WIPE_END
G1 X97.605 Y96.669 Z.6 F18000
G1 X110.924 Y125.285 Z.6
G1 Z.2
G1 E7 F4200
;TYPE:Inner wall
;WIDTH:0.499999
G1 F1800
G1 X111.989 Y123.928 E.06426
G1 X113.193 Y122.691 E.06427
G1 X114.521 Y121.59 E.06426
G1 X115.959 Y120.636 E.06426
G1 X117.49 Y119.841 E.06426
G1 X119.097 Y119.213 E.06426
G1 X120.761 Y118.759 E.06426
G1 X122.465 Y118.484 E.06426
G1 X124.188 Y118.392 E.06426
G1 X125.901 Y118.484 E.06389
G1 X127.614 Y118.759 E.06465
G1 X129.279 Y119.213 E.06425
G1 X130.886 Y119.841 E.06426
G1 X132.417 Y120.636 E.06426
G1 X133.854 Y121.59 E.06426
G1 X135.183 Y122.691 E.06426
G1 X136.386 Y123.928 E.06427
G1 X137.452 Y125.285 E.06426
G1 X138.367 Y126.747 E.06426
G1 X139.121 Y128.299 E.06426
G1 X139.707 Y129.922 E.06426
G1 X140.116 Y131.598 E.06426
G1 X140.298 Y132.955 E.05098
G1 X140.355 Y133.665 E.02654
G1 X140.391 Y135.033 E.05098
G1 X140.254 Y136.753 E.06426
G1 X139.934 Y138.448 E.06426
G1 X139.436 Y140.1 E.06426
G1 X138.765 Y141.69 E.06426
G1 X137.929 Y143.199 E.06426
G1 X136.937 Y144.611 E.06426
G1 X135.801 Y145.91 E.06426
G1 X134.541 Y147.073 E.06389
G1 X133.148 Y148.109 E.06465
G1 X131.662 Y148.985 E.06425
G1 X130.091 Y149.698 E.06426
G1 X128.452 Y150.24 E.06426
G1 X126.766 Y150.604 E.06426
G1 X125.035 Y150.789 E.06484
G1 X124.188 Y150.812 E.03157
G1 X123.34 Y150.789 E.03157
G1 X121.609 Y150.604 E.06484
G1 X119.923 Y150.24 E.06426
G1 X118.285 Y149.698 E.06426
G1 X116.714 Y148.985 E.06426
G1 X115.227 Y148.109 E.06426
G1 X113.842 Y147.08 E.06426
G1 X112.575 Y145.91 E.06426
G1 X111.438 Y144.611 E.06426
G1 X110.447 Y143.199 E.06426
G1 X109.611 Y141.69 E.06426
G1 X108.94 Y140.1 E.06426
G1 X108.442 Y138.448 E.06426
G1 X108.122 Y136.753 E.06426
G1 X107.984 Y135.033 E.06426
G1 X108.03 Y133.308 E.06426
G1 X108.259 Y131.598 E.06426
G1 X108.669 Y129.922 E.06426
G1 X109.254 Y128.299 E.06426
G1 X110.009 Y126.747 E.06426
G1 X110.903 Y125.319 E.06277
G1 X110.549 Y125.022 F18000
G1 F1800
G1 X111.645 Y123.626 E.06608
G1 X112.882 Y122.355 E.06608
G1 X114.248 Y121.223 E.06608
G1 X115.727 Y120.242 E.06608
G1 X117.301 Y119.424 E.06608
G1 X118.953 Y118.778 E.06608
G1 X120.665 Y118.311 E.06608
G1 X122.416 Y118.029 E.06608
G1 X124.188 Y117.935 E.06608
G1 X125.949 Y118.028 E.0657
G1 X127.711 Y118.311 E.06646
G1 X129.422 Y118.778 E.06607
G1 X131.075 Y119.424 E.06608
G1 X132.649 Y120.242 E.06608
G1 X134.127 Y121.223 E.06608
G1 X135.493 Y122.355 E.06608
G1 X136.731 Y123.626 E.06608
G1 X137.826 Y125.022 E.06608
G1 X138.767 Y126.526 E.06608
G1 X139.543 Y128.121 E.06608
G1 X140.145 Y129.79 E.06608
G1 X140.566 Y131.513 E.06608
G1 X140.751 Y132.894 E.05188
G1 X140.812 Y133.653 E.02835
G1 X140.849 Y135.045 E.05189
G1 X140.707 Y136.814 E.06608
G1 X140.379 Y138.557 E.06608
G1 X139.866 Y140.256 E.06608
G1 X139.177 Y141.89 E.06608
G1 X138.317 Y143.442 E.06608
G1 X137.297 Y144.894 E.06608
G1 X136.129 Y146.229 E.06608
G1 X134.833 Y147.425 E.0657
G1 X133.401 Y148.49 E.06647
G1 X131.873 Y149.391 E.06607
G1 X130.257 Y150.124 E.06608
G1 X128.573 Y150.681 E.06608
G1 X126.839 Y151.056 E.06608
G1 X125.065 Y151.246 E.06643
G1 X124.188 Y151.269 E.0327
G1 X123.31 Y151.246 E.0327
G1 X121.537 Y151.056 E.06643
G1 X119.803 Y150.681 E.06608
G1 X118.118 Y150.124 E.06608
G1 X116.503 Y149.391 E.06608
G1 X114.974 Y148.49 E.06608
G1 X113.55 Y147.432 E.06608
G1 X112.247 Y146.229 E.06608
G1 X111.078 Y144.894 E.06608
G1 X110.059 Y143.442 E.06608
G1 X109.199 Y141.89 E.06608
G1 X108.509 Y140.256 E.06608
G1 X107.997 Y138.557 E.06608
G1 X107.668 Y136.814 E.06608
G1 X107.527 Y135.045 E.06608
G1 X107.574 Y133.272 E.06608
G1 X107.809 Y131.513 E.06608
G1 X108.23 Y129.79 E.06608
G1 X108.832 Y128.121 E.06608
G1 X109.608 Y126.526 E.06608
G1 X110.528 Y125.055 E.06459
G1 X110.175 Y124.758 F18000
;TYPE:Outer wall
G1 F1800
G1 X111.3 Y123.325 E.06789
G1 X112.572 Y122.019 E.06789
G1 X113.975 Y120.855 E.06789
G1 X115.494 Y119.848 E.06789
G1 X117.112 Y119.007 E.06789
G1 X118.809 Y118.343 E.06789
G1 X120.568 Y117.864 E.06789
G1 X122.368 Y117.574 E.06789
G1 X124.188 Y117.477 E.06789
G1 X125.998 Y117.573 E.06751
G1 X127.808 Y117.864 E.06828
G1 X129.566 Y118.343 E.06789
G1 X131.264 Y119.007 E.06789
G1 X132.881 Y119.848 E.06789
G1 X134.4 Y120.855 E.06789
G1 X135.804 Y122.019 E.06789
G1 X137.075 Y123.325 E.06789
G1 X138.201 Y124.758 E.06789
G1 X139.168 Y126.304 E.06789
G1 X139.965 Y127.943 E.06789
G1 X140.583 Y129.658 E.06789
G1 X141.016 Y131.429 E.06789
G1 X141.204 Y132.833 E.05279
G1 X141.269 Y133.641 E.03016
G1 X141.306 Y135.057 E.05279
G1 X141.161 Y136.874 E.06789
G1 X140.823 Y138.666 E.06789
G1 X140.297 Y140.411 E.06789
G1 X139.588 Y142.09 E.06789
G1 X138.705 Y143.685 E.06789
G1 X137.657 Y145.176 E.06789
G1 X136.457 Y146.548 E.06789
G1 X135.125 Y147.778 E.06751
M73 P1 R57
M73 P1 R57
G1 X133.654 Y148.872 E.06828
G1 X132.084 Y149.797 E.06789
G1 X130.424 Y150.55 E.06789
G1 X128.693 Y151.123 E.06789
G1 X126.912 Y151.508 E.06789
G1 X125.096 Y151.702 E.06802
G1 X124.188 Y151.726 E.03384
G1 X123.28 Y151.702 E.03384
G1 X121.464 Y151.508 E.06802
G1 X119.682 Y151.123 E.06789
G1 X117.952 Y150.55 E.06789
G1 X116.292 Y149.797 E.06789
G1 X114.721 Y148.872 E.06789
G1 X113.258 Y147.785 E.06789
G1 X111.919 Y146.548 E.06789
G1 X110.718 Y145.176 E.06789
G1 X109.671 Y143.685 E.06789
G1 X108.787 Y142.09 E.06789
G1 X108.079 Y140.411 E.06789
G1 X107.552 Y138.666 E.06789
G1 X107.215 Y136.874 E.06789
G1 X107.069 Y135.057 E.06789
G1 X107.118 Y133.235 E.06789
G1 X107.36 Y131.429 E.06789
G1 X107.792 Y129.658 E.06789
G1 X108.411 Y127.943 E.06789
G1 X109.208 Y126.304 E.06789
G1 X110.153 Y124.792 E.0664
G1 E-4.9 F4200
;WIPE_START
G1 F1800
G1 X110.769 Y124.004 E-2.1
;WIPE_END
G1 X117.421 Y127.747 Z.6 F18000
G1 X124.716 Y131.852 Z.6
G1 Z.2
G1 E7 F4200
;TYPE:Inner wall
G1 F1800
G1 X124.937 Y131.907 E.00849
G1 X125.419 Y132.078 E.01906
G1 X125.721 Y132.253 E.013
G1 X126.16 Y132.608 E.02104
G1 X126.416 Y132.898 E.01439
G1 X126.712 Y133.379 E.02104
G1 X126.856 Y133.738 E.01439
G1 X126.975 Y134.29 E.02104
G1 X126.991 Y134.676 E.01439
G1 X126.919 Y135.236 E.02104
G1 X126.806 Y135.605 E.01439
G1 X126.552 Y136.11 E.02104
G1 X126.322 Y136.42 E.01439
G1 X125.914 Y136.811 E.02104
G1 X125.594 Y137.028 E.01439
G1 X125.08 Y137.26 E.02104
G1 X124.706 Y137.358 E.01439
G1 X124.143 Y137.406 E.02104
G1 X123.758 Y137.373 E.01439
G1 X123.211 Y137.23 E.02104
G1 X122.859 Y137.071 E.01439
G1 X122.391 Y136.755 E.02104
G1 X122.107 Y136.48 E.01472
G1 X121.776 Y136.034 E.0207
G1 X121.603 Y135.689 E.01439
G1 X121.407 Y135.026 E.02575
G1 X121.412 Y134.201 E.03072
G1 X121.493 Y133.823 E.01439
G1 X121.704 Y133.299 E.02104
G1 X121.907 Y132.97 E.01439
G1 X122.28 Y132.546 E.02104
G1 X122.58 Y132.303 E.01439
G1 X123.074 Y132.028 E.02104
G1 X123.438 Y131.899 E.01439
G1 X123.995 Y131.804 E.02104
G1 X124.567 Y131.815 E.02133
G1 X124.677 Y131.843 E.00421
G1 X124.646 Y132.3 F18000
G1 F1800
G1 X125.231 Y132.496 E.02299
G1 X125.434 Y132.609 E.00863
G1 X125.873 Y132.964 E.02104
G1 X126.026 Y133.138 E.00863
G1 X126.323 Y133.619 E.02104
G1 X126.409 Y133.834 E.00863
G1 X126.528 Y134.386 E.02104
G1 X126.538 Y134.618 E.00863
G1 X126.466 Y135.178 E.02104
G1 X126.333 Y135.53 E.01401
G1 X126.093 Y135.99 E.01931
G1 X125.598 Y136.481 E.02598
G1 X125.406 Y136.611 E.00863
G1 X124.891 Y136.844 E.02104
G1 X124.667 Y136.902 E.00863
G1 X124.104 Y136.95 E.02104
G1 X123.873 Y136.931 E.00863
G1 X123.326 Y136.788 E.02104
G1 X123.115 Y136.693 E.00863
G1 X122.647 Y136.376 E.02104
G1 X122.474 Y136.209 E.00897
G1 X122.144 Y135.762 E.0207
G1 X122.04 Y135.555 E.00863
G1 X121.873 Y135.012 E.02115
G1 X121.869 Y134.22 E.02948
G1 X121.918 Y133.994 E.00863
G1 X122.128 Y133.469 E.02104
G1 X122.25 Y133.272 E.00863
G1 X122.623 Y132.848 E.02104
G1 X122.859 Y132.671 E.01098
G1 X123.297 Y132.427 E.01867
G1 X123.515 Y132.35 E.00863
G1 X124.072 Y132.254 E.02104
G1 X124.579 Y132.277 E.0189
G1 X124.608 Y132.287 E.00115
G1 X124.492 Y132.734 F18000
;TYPE:Outer wall
G1 F1800
G1 X124.546 Y132.739 E.00203
G1 X125.079 Y132.927 E.02104
G1 X125.586 Y133.319 E.02388
G1 X125.933 Y133.858 E.02388
G1 X126.074 Y134.447 E.02252
G1 X126.013 Y135.12 E.02518
G1 X125.736 Y135.698 E.02388
G1 X125.282 Y136.151 E.02388
G1 X124.703 Y136.427 E.02388
G1 X124.065 Y136.495 E.02388
G1 X123.442 Y136.346 E.02388
G1 X122.903 Y135.998 E.02388
G1 X122.511 Y135.49 E.02388
G1 X122.311 Y134.881 E.02388
G1 X122.325 Y134.24 E.02388
G1 X122.508 Y133.75 E.01947
G1 X122.593 Y133.574 E.00727
G1 X122.966 Y133.15 E.02104
G1 X123.519 Y132.826 E.02388
G1 X124.149 Y132.705 E.02388
G1 X124.452 Y132.731 E.01133
G1 E-4.9 F4200
;WIPE_START
G1 F1800
G1 X124.546 Y132.739 E-.19862
G1 X125.079 Y132.927 E-1.18647
G1 X125.348 Y133.135 E-.71492
;WIPE_END
G1 X131.704 Y128.909 Z.6 F18000
G1 X137.235 Y125.23 Z.6
G1 Z.2
G1 E7 F4200
;TYPE:Bottom surface
;WIDTH:0.502566
G1 F2400
G1 X134.94 Y122.935 E.12156
G1 X133.65 Y121.866 E.06277
G1 X132.374 Y121.019 E.05735
G1 X137.73 Y126.376 E.28372
G1 X138.067 Y126.914 E.02378
G1 X138.491 Y127.787 E.03637
G1 X130.981 Y120.277 E.39781
G1 X130.744 Y120.153 E.01002
G1 X129.864 Y119.809 E.03539
G1 X138.985 Y128.93 E.48314
G1 X139.351 Y129.947 E.04048
G1 X128.857 Y119.453 E.55588
G1 X127.963 Y119.209 E.0347
M73 P1 R56
M73 P1 R56
G1 X139.573 Y130.819 E.61495
G1 X139.781 Y131.677 E.03307
G1 X127.133 Y119.029 E.66997
G1 X126.358 Y118.904 E.02937
G1 X139.881 Y132.427 E.71631
G1 X139.982 Y133.178 E.02836
G1 X125.616 Y118.812 E.76097
G1 X124.929 Y118.775 E.02575
G1 X140.017 Y133.863 E.7992
G1 X140.035 Y134.531 E.02502
G1 X124.243 Y118.739 E.83652
G1 X123.62 Y118.766 E.02335
G1 X140.035 Y135.181 E.86953
G1 X139.987 Y135.783 E.02262
G1 X123.003 Y118.799 E.89967
G1 X122.396 Y118.842 E.02277
G1 X139.939 Y136.385 E.92923
G1 X139.913 Y136.707 E.01211
G1 X139.865 Y136.961 E.00969
G1 X121.837 Y118.933 E.95499
G1 X121.277 Y119.023 E.02124
G1 X139.762 Y137.508 E.97918
G1 X139.659 Y138.055 E.02085
G1 X120.727 Y119.123 E1.00283
G1 X120.216 Y119.263 E.01983
G1 X139.536 Y138.582 E1.02334
G1 X139.385 Y139.081 E.01954
G1 X119.706 Y119.402 E1.04241
G1 X119.196 Y119.542 E.01981
G1 X139.234 Y139.581 E1.06145
G1 X139.076 Y140.072 E.01934
G1 X118.728 Y119.725 E1.07779
G1 X118.261 Y119.907 E.01879
G1 X138.883 Y140.529 E1.09232
G1 X138.69 Y140.986 E.01858
G1 X117.794 Y120.09 E1.10686
G1 X117.352 Y120.299 E.01829
G1 X138.497 Y141.443 E1.12003
G1 X138.273 Y141.87 E.01804
G1 X116.925 Y120.521 E1.13084
G1 X116.497 Y120.743 E.01806
